; generated by PrusaSlicer 2.9.3 on 2026-01-07 at 16:40:30 UTC


;
;

;
;
; 

; external perimeters extrusion width = 0.45mm
; perimeters extrusion width = 0.45mm
; infill extrusion width = 0.45mm
; solid infill extrusion width = 0.45mm
; top infill extrusion width = 0.40mm
; support material extrusion width = 0.40mm
; first layer extrusion width = 0.40mm

M190 S65 ; set bed temperature and wait for it to be reached
;TYPE:Custom
M220 S100 ;Reset Feedrate
M221 S100 ;Reset Flowrate

G28 ;Home

G92 E0 ;Reset Extruder
G1 Z2.0 F3000 ;Move Z Axis up
G1 X-2.0 Y20 Z0.28 F5000.0 ;Move to start position
M109 S200
G1 X-2.0 Y145.0 Z0.28 F1500.0 E15 ;Draw the first line
G1 X-1.7 Y145.0 Z0.28 F5000.0 ;Move to side a little
G1 X-1.7 Y20 Z0.28 F1500.0 E30 ;Draw the second line
G92 E0 ;Reset Extruder
G1 E-1.0000 F1800 ;Retract a bit
G1 Z2.0 F3000 ;Move Z Axis up
G1 E0.0000 F1800
G21 ; set units to millimeters
G90 ; use absolute coordinates
M83 ; use relative distances for extrusion
; Filament gcode
M107
;LAYER_CHANGE
;Z:0.2
;HEIGHT:0.2
G1 E-.8 F2400
G1 Z.2 F18000
G1 X60.605 Y93.622
G1 E.8 F2400
M204 S2000
;TYPE:Skirt/Brim
;WIDTH:0.4
G1 F6000
G1 X103.889 Y69.614 E1.41083
G1 X105.509 Y69.031 E.04908
G1 X106.068 Y68.904 E.01634
G1 X107.208 Y68.749 E.03279
G1 X108.929 Y68.777 E.04906
G1 X109.497 Y68.855 E.01634
G1 X111.162 Y69.292 E.04907
G1 X112.721 Y70.02 E.04904
G1 X114.098 Y70.991 E.04803
G1 X144.301 Y99.504 E1.18392
G1 X149.459 Y104.76 E.2099
G1 X150.205 Y106.022 E.04179
G1 X152.434 Y113.207 E.21443
G1 X152.559 Y113.814 E.01766
G1 X153.334 Y121.132 E.20976
G1 X153.331 Y121.827 E.01981
G1 X152.498 Y129.139 E.20977
G1 X152.346 Y129.81 E.01961
G1 X149.936 Y136.835 E.21169
G1 X149.652 Y137.443 E.01913
G1 X145.757 Y143.91 E.21518
G1 X145.369 Y144.427 E.01842
G1 X140.139 Y150.088 E.21968
G1 X139.676 Y150.5 E.01767
G1 X133.313 Y155.138 E.22444
G1 X132.802 Y155.442 E.01695
G1 X125.009 Y159.076 E.24509
G1 X116.592 Y161.276 E.24797
G1 X107.862 Y161.961 E.2496
G1 X99.696 Y161.209 E.23375
G1 X91.296 Y158.943 E.24799
G1 X83.533 Y155.246 E.24508
G1 X83.024 Y154.939 E.01694
G1 X76.697 Y150.25 E.22447
G1 X76.238 Y149.835 E.01764
G1 X71.053 Y144.132 E.2197
G1 X70.669 Y143.612 E.01843
G1 X66.826 Y137.114 E.21518
G1 X66.547 Y136.504 E.01912
G1 X64.168 Y129.387 E.21389
G1 X56.474 Y104.364 E.7462
G1 X56.18 Y102.875 E.04326
G1 X56.127 Y101.162 E.04885
G1 X56.381 Y99.467 E.04885
G1 X56.533 Y98.917 E.01626
G1 X57.182 Y97.33 E.04887
G1 X57.77 Y96.347 E.03265
G1 X58.858 Y95.024 E.04882
G1 X60.558 Y93.66 E.06213
G1 E-.8 F2400
M204 S5000
G1 X108.173 Y71.924 F18000
G1 E.8 F2400
M204 S2000
;TYPE:Support material
G1 F6000
G1 X108.783 Y71.952 E.01741
G1 X109.904 Y72.21 E.03279
G1 X110.96 Y72.666 E.03279
G1 X111.916 Y73.303 E.03274
G1 X112.742 Y74.1 E.03272
G1 X113.411 Y75.033 E.03272
G1 X113.902 Y76.069 E.03268
G1 X114.2 Y77.175 E.03265
G1 X114.294 Y78.315 E.0326
G1 X114.183 Y79.453 E.03259
G1 X113.872 Y80.55 E.0325
G1 X113.37 Y81.574 E.03251
G1 X112.695 Y82.49 E.03243
G1 X111.674 Y83.399 E.03896
G1 X108.423 Y83.104 E.09305
G1 X104.238 Y83.457 E.11971
G1 X103.535 Y82.903 E.02551
G1 X102.78 Y82.05 E.03247
G1 X102.188 Y81.075 E.03251
G1 X101.779 Y80.008 E.03257
G1 X101.567 Y78.884 E.0326
G1 X101.56 Y77.739 E.03264
G1 X101.758 Y76.609 E.0327
G1 X102.155 Y75.533 E.03269
G1 X102.74 Y74.544 E.03275
G1 X103.492 Y73.676 E.03273
G1 X104.389 Y72.957 E.03277
G1 X105.401 Y72.41 E.03279
G1 X106.494 Y72.053 E.03277
G1 X107.635 Y71.899 E.03282
G1 X108.12 Y71.922 E.01384
M204 S5000
G1 X113.863 Y79.99 F18000
M204 S2000
G1 F6000
G1 X113.863 Y77.163 E.08058
G1 X113.467 Y75.9 E.03773
G1 X113.467 Y80.646 E.13528
G1 X113.07 Y81.439 E.02528
G1 X113.07 Y75.108 E.18046
G1 X112.673 Y74.555 E.0194
G1 X112.673 Y81.978 E.21158
G1 X112.276 Y82.444 E.01745
G1 X112.276 Y74.097 E.23792
G1 X111.88 Y73.714 E.0157
G1 X111.88 Y82.819 E.25953
G1 X111.592 Y83.068 E.01085
G1 X111.483 Y83.058 E.00312
G1 X111.483 Y73.4 E.27529
G1 X111.086 Y73.136 E.01359
G1 X111.086 Y83.022 E.28179
G1 X110.689 Y82.985 E.01136
G1 X110.689 Y72.899 E.28749
G1 X110.293 Y72.728 E.01229
G1 X110.293 Y82.949 E.29134
G1 X109.896 Y82.912 E.01136
G1 X109.896 Y72.557 E.29516
G1 X109.803 Y72.517 E.00289
G1 X109.499 Y72.447 E.00889
G1 X109.499 Y82.875 E.29724
G1 X109.102 Y82.839 E.01136
G1 X109.102 Y72.355 E.29883
G1 X108.706 Y72.27 E.01154
G1 X108.706 Y82.802 E.3002
G1 X108.309 Y82.792 E.01132
G1 X108.309 Y72.252 E.30043
G1 X107.912 Y72.234 E.01133
G1 X107.912 Y82.825 E.30188
G1 X107.515 Y82.858 E.01135
G1 X107.515 Y72.239 E.30268
G1 X107.119 Y72.293 E.01139
G1 X107.119 Y82.892 E.30211
G1 X106.722 Y82.925 E.01135
G1 X106.722 Y72.347 E.30151
G1 X106.325 Y72.446 E.01166
G1 X106.325 Y82.959 E.29966
G1 X105.928 Y82.992 E.01135
G1 X105.928 Y72.576 E.29689
G1 X105.532 Y72.705 E.01187
G1 X105.532 Y83.025 E.29416
G1 X105.135 Y83.059 E.01136
G1 X105.135 Y72.919 E.28903
G1 X104.738 Y73.133 E.01286
G1 X104.738 Y83.092 E.28387
G1 X104.341 Y83.126 E.01136
G1 X104.341 Y73.407 E.27703
G1 X103.945 Y73.725 E.01448
G1 X103.945 Y82.817 E.25916
G1 X103.548 Y82.433 E.01574
G1 X103.548 Y74.102 E.23746
G1 X103.151 Y74.56 E.01728
G1 X103.151 Y81.985 E.21164
G1 X102.754 Y81.388 E.02044
G1 X102.754 Y75.151 E.17778
G1 X102.358 Y75.912 E.02445
G1 X102.358 Y80.619 E.13417
G1 X102.09 Y79.92 E.02134
G1 X101.961 Y79.237 E.01981
G1 X101.961 Y76.523 E.07736
G1 E-.8 F2400
M204 S5000
G1 X66.023 Y95.384 F18000
G1 E.8 F2400
M204 S2000
G1 F6000
G1 X66.522 Y95.407 E.01424
G1 X67.638 Y95.663 E.03264
G1 X68.689 Y96.114 E.0326
G1 X69.642 Y96.746 E.03259
G1 X70.468 Y97.537 E.0326
G1 X71.138 Y98.463 E.03258
G1 X71.633 Y99.493 E.03257
G1 X71.935 Y100.595 E.03257
G1 X72.02 Y101.548 E.02727
G1 X69.056 Y106.469 E.16374
G1 X68.768 Y107.285 E.02467
G1 X67.634 Y107.79 E.03538
G1 X66.521 Y108.046 E.03255
G1 X65.38 Y108.098 E.03256
G1 X64.247 Y107.946 E.03258
G1 X63.16 Y107.595 E.03256
G1 X62.152 Y107.054 E.03261
G1 X61.257 Y106.343 E.03258
G1 X60.503 Y105.482 E.03262
G1 X59.915 Y104.501 E.0326
G1 X59.512 Y103.43 E.03262
G1 X59.306 Y102.304 E.03263
G1 X59.306 Y101.159 E.03264
G1 X59.509 Y100.033 E.03261
G1 X59.911 Y98.96 E.03266
G1 X60.498 Y97.977 E.03263
G1 X61.252 Y97.115 E.03264
G1 X62.147 Y96.402 E.03262
G1 X63.156 Y95.86 E.03265
G1 X64.245 Y95.507 E.03263
G1 X65.38 Y95.354 E.03264
G1 X65.969 Y95.382 E.01681
M204 S5000
G1 X71.411 Y102.248 F18000
M204 S2000
G1 F6000
G1 X71.411 Y99.898 E.06698
G1 X71.014 Y98.946 E.0294
G1 X71.014 Y102.596 E.10404
G1 X70.617 Y103.254 E.0219
G1 X70.617 Y98.291 E.14146
G1 X70.22 Y97.745 E.01924
G1 X70.22 Y103.913 E.17581
G1 X69.824 Y104.572 E.02191
G1 X69.824 Y97.365 E.20543
G1 X69.427 Y96.988 E.01561
G1 X69.427 Y105.231 E.23496
G1 X69.03 Y105.889 E.0219
G1 X69.03 Y96.726 E.26118
G1 X68.633 Y96.463 E.01357
G1 X68.633 Y106.687 E.29142
G1 X68.502 Y107.069 E.01151
G1 X68.237 Y107.183 E.00822
G1 X68.237 Y96.27 E.31106
G1 X67.84 Y96.099 E.01232
G1 X67.84 Y107.353 E.32078
G1 X67.443 Y107.505 E.01212
G1 X67.443 Y95.948 E.32942
G1 X67.046 Y95.857 E.01161
G1 X67.046 Y107.595 E.33458
G1 X66.65 Y107.686 E.01158
G1 X66.65 Y95.766 E.33976
G1 X66.253 Y95.716 E.01141
G1 X66.253 Y107.736 E.34261
G1 X65.856 Y107.755 E.01133
G1 X65.856 Y95.698 E.34367
G1 X65.459 Y95.68 E.01133
G1 X65.459 Y107.773 E.34469
G1 X65.063 Y107.731 E.01135
G1 X65.063 Y95.721 E.34233
G1 X64.666 Y95.774 E.01142
G1 X64.666 Y107.678 E.33931
G1 X64.269 Y107.616 E.01145
G1 X64.269 Y95.837 E.33574
G1 X63.872 Y95.965 E.01189
G1 X63.872 Y107.487 E.32842
G1 X63.476 Y107.359 E.01186
G1 X63.476 Y96.094 E.32109
G1 X63.079 Y96.266 E.01233
G1 X63.079 Y107.186 E.31126
G1 X62.682 Y106.974 E.01283
G1 X62.682 Y96.479 E.29915
G1 X62.285 Y96.702 E.01298
G1 X62.285 Y106.749 E.28638
G1 X61.889 Y106.434 E.01442
G1 X61.889 Y97.019 E.26836
G1 X61.492 Y97.335 E.01446
G1 X61.492 Y106.119 E.25038
G1 X61.095 Y105.67 E.01708
G1 X61.095 Y97.783 E.22481
G1 X60.698 Y98.269 E.01789
G1 X60.698 Y105.182 E.19705
G1 X60.302 Y104.52 E.02199
G1 X60.302 Y98.934 E.15922
G1 X59.905 Y99.893 E.02958
G1 X59.905 Y104.017 E.11755
G1 E-.8 F2400
M204 S5000
G1 X96.193 Y124.504 F18000
G1 E.8 F2400
M204 S2000
;TYPE:Perimeter
;WIDTH:0.399999
G1 F6000
G1 X96.226 Y124.546 E.00152
G1 X96.453 Y124.992 E.01426
G1 X96.588 Y125.474 E.01427
G1 X96.627 Y125.974 E.0143
G1 X96.568 Y126.471 E.01427
G1 X96.413 Y126.947 E.01427
G1 X96.168 Y127.384 E.01428
G1 X95.842 Y127.765 E.01429
G1 X95.448 Y128.074 E.01427
G1 X95.002 Y128.301 E.01426
G1 X94.52 Y128.437 E.01428
G1 X94.02 Y128.476 E.0143
G1 X93.523 Y128.416 E.01427
G1 X93.047 Y128.261 E.01427
G1 X92.61 Y128.016 E.01428
G1 X92.229 Y127.69 E.01429
G1 X91.919 Y127.297 E.01427
G1 X91.692 Y126.85 E.01429
G1 X91.557 Y126.368 E.01427
G1 X91.518 Y125.869 E.01427
G1 X91.577 Y125.371 E.01429
G1 X91.733 Y124.895 E.01428
G1 X91.978 Y124.458 E.01428
G1 X92.303 Y124.078 E.01425
G1 X92.697 Y123.768 E.01429
G1 X93.146 Y123.54 E.01435
G1 X93.637 Y123.404 E.01452
G1 X94.125 Y123.367 E.01395
G1 X94.623 Y123.426 E.01429
G1 X95.074 Y123.569 E.01349
G1 X95.536 Y123.826 E.01507
G1 X95.916 Y124.152 E.01427
G1 X96.156 Y124.457 E.01106
M204 S5000
G1 X95.9 Y124.7 F18000
M204 S2000
;TYPE:External perimeter
G1 F6000
G1 X95.911 Y124.714 E.00051
G1 X96.111 Y125.096 E.01229
G1 X96.233 Y125.509 E.01227
G1 X96.272 Y125.939 E.01231
G1 X96.226 Y126.367 E.01227
G1 X96.098 Y126.779 E.0123
G1 X95.892 Y127.158 E.0123
G1 X95.615 Y127.489 E.0123
G1 X95.28 Y127.76 E.01228
G1 X94.898 Y127.96 E.01229
G1 X94.485 Y128.082 E.01227
G1 X94.055 Y128.12 E.0123
G1 X93.626 Y128.075 E.0123
G1 X93.215 Y127.946 E.01228
G1 X92.836 Y127.74 E.0123
G1 X92.505 Y127.464 E.01228
G1 X92.169 Y127.005 E.01621
G1 X92.034 Y126.747 E.0083
G1 X91.912 Y126.333 E.0123
G1 X91.873 Y125.904 E.01228
G1 X91.919 Y125.475 E.0123
G1 X92.048 Y125.063 E.01231
G1 X92.254 Y124.685 E.01227
G1 X92.53 Y124.354 E.01228
G1 X92.865 Y124.083 E.01228
G1 X93.248 Y123.882 E.01233
G1 X93.672 Y123.76 E.01258
G1 X94.09 Y123.722 E.01196
G1 X94.519 Y123.768 E.0123
G1 X94.922 Y123.892 E.01202
G1 X95.309 Y124.102 E.01255
G1 X95.64 Y124.378 E.01228
G1 X95.862 Y124.654 E.0101
G1 X96.06 Y125.001 F18000
G1 E-.8 F2400
M204 S5000
G1 X102.578 Y145.159 F18000
G1 E.8 F2400
M204 S2000
;TYPE:Perimeter
G1 F6000
G1 X102.511 Y145.233 E.00285
G1 X102.255 Y145.323 E.00773
G1 X89.311 Y145.274 E.36895
G1 X89.057 Y145.208 E.00748
G1 X88.9 Y145.079 E.00579
G1 X88.784 Y144.821 E.00806
G1 X88.777 Y144.736 E.00243
G1 X88.829 Y131.838 E.36764
G1 X88.9 Y131.574 E.00779
G1 X88.974 Y131.474 E.00355
G1 X89.176 Y131.339 E.00693
G1 X89.506 Y131.305 E.00946
G1 X102.264 Y131.356 E.36365
G1 X102.526 Y131.426 E.00773
G1 X102.713 Y131.602 E.00732
G1 X102.796 Y131.854 E.00756
G1 X102.746 Y144.792 E.36878
G1 X102.684 Y145.041 E.00731
G1 X102.618 Y145.114 E.00281
M204 S5000
G1 X102.334 Y144.908 F18000
M204 S2000
;TYPE:External perimeter
G1 F6000
G1 X102.326 Y144.925 E.00054
G1 X102.21 Y144.968 E.00353
G1 X89.312 Y144.917 E.36764
G1 X89.175 Y144.852 E.00432
G1 X89.134 Y144.738 E.00345
G1 X89.186 Y131.84 E.36764
G1 X89.234 Y131.718 E.00374
G1 X89.365 Y131.662 E.00406
G1 X102.263 Y131.713 E.36764
G1 X102.402 Y131.781 E.00441
G1 X102.441 Y131.892 E.00335
G1 X102.389 Y144.79 E.36764
G1 X102.36 Y144.854 E.002
G1 X101.974 Y144.961 F18000
G1 E-.8 F2400
M204 S5000
G1 X131.377 Y109.892 F18000
G1 E.8 F2400
M204 S2000
;TYPE:Perimeter
G1 F6000
G1 X131.386 Y110.012 E.00343
G1 X131.281 Y110.249 E.00739
G1 X124.667 Y117.585 E.28154
G1 X124.431 Y117.737 E.008
G1 X124.166 Y117.751 E.00756
G1 X123.932 Y117.641 E.00737
G1 X123.332 Y117.104 E.02295
G1 X109.09 Y104.316 E.54558
G1 X108.94 Y104.086 E.00783
G1 X108.923 Y103.81 E.00788
G1 X109.048 Y103.561 E.00794
G1 X115.592 Y96.215 E.28042
G1 X115.784 Y96.078 E.00672
G1 X116.061 Y96.04 E.00797
G1 X116.29 Y96.126 E.00697
G1 X116.35 Y96.173 E.00217
G1 X131.216 Y109.521 E.56948
G1 X131.366 Y109.749 E.00778
G1 X131.373 Y109.832 E.00237
M204 S5000
G1 X131.032 Y109.905 F18000
M204 S2000
;TYPE:External perimeter
G1 F6000
G1 X131.037 Y109.915 E.00032
G1 X130.991 Y110.039 E.00377
G1 X124.402 Y117.346 E.28045
G1 X124.262 Y117.404 E.00432
G1 X124.151 Y117.359 E.00341
G1 X109.329 Y104.05 E.5678
G1 X109.278 Y103.974 E.00261
G1 X109.295 Y103.826 E.00425
G1 X109.315 Y103.799 E.00096
G1 X115.859 Y96.453 E.28042
G1 X115.989 Y96.393 E.00408
G1 X116.111 Y96.439 E.00372
G1 X130.978 Y109.786 E.56948
G1 X131.007 Y109.85 E.002
G1 X130.829 Y110.209 F18000
G1 E-.8 F2400
M204 S5000
G1 X135.352 Y119.703 F18000
G1 E.8 F2400
M204 S2000
;TYPE:Perimeter
G1 F6000
G1 X135.301 Y119.717 E.00151
G1 X134.802 Y119.756 E.01427
G1 X134.305 Y119.697 E.01427
G1 X133.828 Y119.541 E.0143
G1 X133.392 Y119.296 E.01426
G1 X133.011 Y118.971 E.01427
G1 X132.701 Y118.577 E.01429
G1 X132.474 Y118.13 E.01429
G1 X132.339 Y117.648 E.01427
G1 X132.3 Y117.149 E.01427
G1 X132.359 Y116.652 E.01427
G1 X132.514 Y116.175 E.0143
G1 X132.76 Y115.738 E.01429
G1 X133.085 Y115.358 E.01425
G1 X133.479 Y115.048 E.01429
G1 X133.928 Y114.82 E.01435
G1 X134.418 Y114.685 E.01449
G1 X134.907 Y114.647 E.01398
G1 X135.404 Y114.706 E.01427
G1 X135.881 Y114.861 E.0143
G1 X136.317 Y115.106 E.01426
G1 X136.698 Y115.432 E.01429
G1 X137.008 Y115.826 E.01429
G1 X137.235 Y116.272 E.01426
G1 X137.37 Y116.754 E.01427
G1 X137.409 Y117.254 E.0143
G1 X137.35 Y117.751 E.01427
G1 X137.195 Y118.227 E.01427
G1 X136.949 Y118.664 E.01429
G1 X136.624 Y119.045 E.01427
G1 X136.23 Y119.355 E.01429
G1 X135.784 Y119.582 E.01426
G1 X135.41 Y119.687 E.01107
M204 S5000
G1 X135.28 Y119.339 F18000
M204 S2000
;TYPE:External perimeter
G1 F6000
G1 X135.131 Y119.375 E.00437
G1 X134.837 Y119.401 E.00841
G1 X134.408 Y119.355 E.0123
G1 X133.997 Y119.227 E.01227
G1 X133.618 Y119.02 E.01231
G1 X133.287 Y118.744 E.01228
G1 X133.009 Y118.396 E.0127
G1 X132.816 Y118.027 E.01187
G1 X132.694 Y117.613 E.0123
G1 X132.655 Y117.184 E.01228
G1 X132.701 Y116.755 E.0123
G1 X132.829 Y116.344 E.01227
G1 X133.036 Y115.965 E.01231
G1 X133.312 Y115.634 E.01228
G1 X133.647 Y115.363 E.01228
G1 X134.03 Y115.163 E.01232
G1 X134.453 Y115.04 E.01256
G1 X134.872 Y115.002 E.01199
G1 X135.301 Y115.048 E.0123
G1 X135.712 Y115.176 E.01227
G1 X136.091 Y115.383 E.01231
G1 X136.422 Y115.659 E.01228
G1 X136.693 Y115.994 E.01228
G1 X136.893 Y116.376 E.01229
G1 X137.015 Y116.789 E.01227
G1 X137.054 Y117.219 E.01231
G1 X137.008 Y117.648 E.0123
G1 X136.828 Y118.156 E.01536
G1 X136.673 Y118.438 E.00917
G1 X136.397 Y118.769 E.01228
G1 X136.062 Y119.04 E.01228
G1 X135.68 Y119.24 E.01229
G1 X135.338 Y119.324 E.01004
G1 X134.943 Y119.387 F18000
G1 E-.8 F2400
M204 S5000
G1 X123.252 Y88.104 F18000
G1 E.8 F2400
M204 S2000
;TYPE:Perimeter
G1 F6000
G1 X127.565 Y94.62 E.22273
G1 X127.654 Y94.723 E.00388
G1 X133.532 Y99.93 E.22383
G1 X133.742 Y100.045 E.00682
G1 X141.826 Y102.311 E.2393
G1 X146.677 Y107.258 E.19749
G1 X148.85 Y114.261 E.209
G1 X148.91 Y114.832 E.01637
G1 X149.613 Y121.465 E.19012
G1 X148.793 Y128.655 E.20627
G1 X146.421 Y135.566 E.20827
G1 X142.586 Y141.934 E.21188
G1 X137.432 Y147.514 E.21651
G1 X131.155 Y152.088 E.22138
G1 X123.995 Y155.481 E.22584
G1 X116.229 Y157.557 E.22913
G1 X108.156 Y158.237 E.23092
G1 X100.088 Y157.493 E.23094
G1 X92.338 Y155.355 E.22915
G1 X85.206 Y151.906 E.22581
G1 X78.965 Y147.282 E.2214
G1 X73.856 Y141.661 E.21651
G1 X70.071 Y135.263 E.21189
G1 X67.754 Y128.334 E.20825
G1 X66.992 Y121.137 E.20629
G1 X67.811 Y113.946 E.20629
G1 X70.183 Y107.035 E.20827
G1 X74.018 Y100.667 E.21188
G1 X79.172 Y95.088 E.21649
G1 X85.449 Y90.513 E.2214
G1 X92.609 Y87.12 E.22584
G1 X100.375 Y85.044 E.22913
G1 X108.449 Y84.364 E.23095
G1 X116.475 Y85.105 E.22974
G1 X123.198 Y88.079 E.20954
M204 S5000
G1 X123.491 Y87.818 F18000
M204 S2000
;TYPE:External perimeter
G1 F6000
G1 X127.892 Y94.457 E.22704
G1 X133.768 Y99.663 E.22377
G1 X133.838 Y99.701 E.00227
G1 X142.014 Y101.993 E.24203
G1 X146.992 Y107.07 E.20267
G1 X149.201 Y114.189 E.21246
G1 X149.265 Y114.794 E.01734
G1 X149.972 Y121.466 E.19124
G1 X149.143 Y128.734 E.20851
G1 X146.747 Y135.718 E.21046
G1 X142.873 Y142.15 E.21402
G1 X137.671 Y147.781 E.21851
G1 X131.338 Y152.397 E.22337
G1 X124.119 Y155.817 E.22769
G1 X116.29 Y157.91 E.23099
G1 X108.154 Y158.596 E.23273
